dist/svgs/unicons/line/comment-alt-question.svg

<svg xmlns="http://www.w3.org/2000/svg" viewBox="0 0 24 24"><path d="M6.29 10.3a1 1 0 001.09 1.63 1.19 1.19 0 00.33-.22 1 1 0 00.21-.32A.85.85 0 008 11a1 1 0 00-.29-.7 1 1 0 00-1.42 0zM7 5a1 1 0 010 2 1 1 0 000 2 3 3 0 10-2.6-4.5 1 1 0 00.37 1.37 1 1 0 001.36-.37A1 1 0 017 5zm12 1h-6a1 1 0 000 2h6a1 1 0 011 1v9.72l-1.57-1.45a1 1 0 00-.68-.27H9a1 1 0 01-1-1v-1a1 1 0 00-2 0v1a3 3 0 003 3h8.36l3 2.73A1 1 0 0021 22a1.1 1.1 0 00.4-.08A1 1 0 0022 21V9a3 3 0 00-3-3z"/></svg>

<svg xmlns="http://www.w3.org/2000/svg" viewBox="0 0 24 24"><path d="M6.29,10.3a1,1,0,0,0,1.09,1.63,1.19,1.19,0,0,0,.33-.22,1,1,0,0,0,.21-.32A.85.85,0,0,0,8,11a1,1,0,0,0-.29-.7A1,1,0,0,0,6.29,10.3ZM7,5A1,1,0,0,1,7,7,1,1,0,0,0,7,9,3,3,0,1,0,4.4,4.5a1,1,0,0,0,.37,1.37A1,1,0,0,0,6.13,5.5,1,1,0,0,1,7,5ZM19,6H13a1,1,0,0,0,0,2h6a1,1,0,0,1,1,1v9.72l-1.57-1.45a1,1,0,0,0-.68-.27H9a1,1,0,0,1-1-1V15a1,1,0,0,0-2,0v1a3,3,0,0,0,3,3h8.36l3,2.73A1,1,0,0,0,21,22a1.1,1.1,0,0,0,.4-.08A1,1,0,0,0,22,21V9A3,3,0,0,0,19,6Z"/></svg>
